src/assets/images/realtime/realtimekit/web/components-gallery/rtk-name-tag.svg

<svg xmlns="http://www.w3.org/2000/svg" xmlns:xlink="http://www.w3.org/1999/xlink" width="400" height="300" fill="none" viewBox="0 0 400 300"><g clip-path="url(#clip0_9781_45373)"><path fill="#fff" d="M0 0h400v300H0z"/><path fill="url(#pattern0_9781_45373)" d="M0 4.21A4.21 4.21 0 0 1 4.21 0h391.58A4.21 4.21 0 0 1 400 4.21v291.58a4.21 4.21 0 0 1-4.211 4.211H4.211A4.21 4.21 0 0 1 0 295.789z" style="mix-blend-mode:darken"/><rect width="366" height="274.5" x="129" y="-84" fill="#1e1e1e" rx="9.76"/><g clip-path="url(#clip1_9781_45373)"><rect width="134" height="134" x="297" y="-62" fill="#fff" fill-opacity=".1" rx="67"/></g><rect width="6.1" height="12.2" x="142.42" y="161.22" fill="#1a8cfe" rx="3.05"/><rect width="6.1" height="24.4" x="151.57" y="155.12" fill="#1a8cfe" rx="3.05"/><rect width="6.1" height="12.2" x="160.72" y="161.22" fill="#1a8cfe" rx="3.05"/><path fill="#fff" fill-opacity=".88" d="M190.845 166.686q0 1.72-.621 2.972t-1.703 1.931q-1.083.68-2.474.68-1.39 0-2.473-.68-1.082-.678-1.703-1.931t-.621-2.972q0-1.72.621-2.972t1.703-1.932q1.083-.68 2.473-.68t2.474.68q1.082.68 1.703 1.932t.621 2.972m-1.274 0q0-1.413-.472-2.383-.467-.972-1.268-1.47a3.3 3.3 0 0 0-1.784-.499 3.3 3.3 0 0 0-1.788.499q-.797.498-1.268 1.47-.468.97-.467 2.383 0 1.412.467 2.382.471.972 1.268 1.471.801.498 1.788.498.988 0 1.784-.498.801-.5 1.268-1.471.472-.97.472-2.382m4.57-5.435v10.869h-1.253v-10.869zm2.294 10.869v-8.152h1.252v8.152zm.637-9.51a.9.9 0 0 1-.632-.25.8.8 0 0 1-.26-.599q0-.351.26-.6a.9.9 0 0 1 .632-.25q.366 0 .626.25a.8.8 0 0 1 .265.6.8.8 0 0 1-.265.599.87.87 0 0 1-.626.25m9.575 1.358-3.014 8.152h-1.274l-3.014-8.152h1.358l2.25 6.496h.085l2.251-6.496zm1.653 8.152v-8.152h1.253v8.152zm.637-9.51a.9.9 0 0 1-.631-.25.8.8 0 0 1-.26-.599q0-.351.26-.6a.9.9 0 0 1 .631-.25q.366 0 .627.25a.8.8 0 0 1 .265.6.8.8 0 0 1-.265.599.87.87 0 0 1-.627.25m5.309 9.701q-.775 0-1.407-.292a2.4 2.4 0 0 1-1.003-.854q-.37-.562-.371-1.359 0-.7.276-1.136.276-.44.738-.689a3.8 3.8 0 0 1 1.019-.372 13 13 0 0 1 1.13-.202q.743-.095 1.205-.143.466-.053.679-.175.218-.122.218-.425v-.042q0-.786-.43-1.221-.424-.435-1.29-.435-.897 0-1.406.393-.51.393-.717.838l-1.189-.424q.32-.744.85-1.157.536-.42 1.167-.584a5 5 0 0 1 1.253-.17q.392 0 .902.096.515.09.992.376.483.287.802.866.318.578.318 1.549v5.371h-1.252v-1.104h-.064a2.2 2.2 0 0 1-.425.568 2.5 2.5 0 0 1-.79.515q-.494.212-1.205.212m.191-1.125q.743 0 1.252-.292a2 2 0 0 0 .775-.753q.266-.462.266-.972v-1.146q-.08.096-.351.175-.266.075-.615.133a29 29 0 0 1-1.2.159q-.488.063-.913.207a1.6 1.6 0 0 0-.679.419q-.255.276-.255.754 0 .653.483.987.489.329 1.237.329"/><rect width="149" height="72" x="110" y="131" stroke="#e7883b" stroke-dasharray="6 6" stroke-linecap="round" stroke-width="2" rx="8"/></g><defs><clipPath id="clip0_9781_45373"><path fill="#fff" d="M0 0h400v300H0z"/></clipPath><clipPath id="clip1_9781_45373"><rect width="134" height="134" x="297" y="-62" fill="#fff" rx="67"/></clipPath><pattern id="pattern0_9781_45373" width=".037" height=".049" patternContentUnits="objectBoundingBox"><use xlink:href="#image0_9781_45373" transform="scale(.00066 .00088)"/></pattern><image xlink:href="data:image/png;base64,iVBORw0KGgoAAAANSUhEUgAAADgAAAA4CAYAAACohjseAAAACXBIWXMAACxLAAAsSwGlPZapAAAAAXNSR0IArs4c6QAAAARnQU1BAACxjwv8YQUAAADdSURBVHgB7dmxDoMgFIXhCzEmbsbF9388F8PGAKHt6dSksvXaHHK+EQbzB0Sj4fFiA4s2OAWyUyA7BbJTIDsFslMgOwWyUyA7BbJTIDsFspvsBrVWO8/TSinWWrNlWWxdV5sm/8sH7w+/iDuO4x32KcZo+767R7pv0ZTSVxxgDKvqzT0w59ydw5b15h4YQujOXa3sr7kHzvPcncNh4809cNu2y1XEGE5Sb+GO32c4SXHY4H5EGFYV4UM8Jv5Nr2rsFMhOgewUyE6B7BTIToHsFMhOgewUyE6B7IYPfALcB0NZ5j6jXgAAAABJRU5ErkJggg==" id="image0_9781_45373" width="56" height="56" preserveAspectRatio="none"/></defs></svg>

<svg width="400" height="300" viewBox="0 0 400 300" fill="none" xmlns="http://www.w3.org/2000/svg" xmlns:xlink="http://www.w3.org/1999/xlink">
<g clip-path="url(#clip0_9781_45373)">
<rect width="400" height="300" fill="white"/>
<g style="mix-blend-mode:darken">
<path d="M0 4.21053C0 1.88512 1.88512 0 4.21053 0H395.789C398.115 0 400 1.88512 400 4.21053V295.789C400 298.115 398.115 300 395.789 300H4.21054C1.88513 300 0 298.115 0 295.789V4.21053Z" fill="url(#pattern0_9781_45373)"/>
</g>
<rect x="129" y="-84" width="366" height="274.5" rx="9.76" fill="#1E1E1E"/>
<g clip-path="url(#clip1_9781_45373)">
<rect x="297" y="-62" width="134" height="134" rx="67" fill="white" fill-opacity="0.1"/>
</g>
<rect x="142.42" y="161.22" width="6.1" height="12.2" rx="3.05" fill="#1A8CFE"/>
<rect x="151.57" y="155.12" width="6.1" height="24.4" rx="3.05" fill="#1A8CFE"/>
<rect x="160.72" y="161.22" width="6.1" height="12.2" rx="3.05" fill="#1A8CFE"/>
<path d="M190.845 166.686C190.845 167.832 190.638 168.823 190.224 169.658C189.81 170.493 189.242 171.137 188.521 171.589C187.799 172.042 186.974 172.269 186.047 172.269C185.12 172.269 184.296 172.042 183.574 171.589C182.853 171.137 182.285 170.493 181.871 169.658C181.457 168.823 181.25 167.832 181.25 166.686C181.25 165.539 181.457 164.549 181.871 163.714C182.285 162.879 182.853 162.235 183.574 161.782C184.296 161.329 185.12 161.102 186.047 161.102C186.974 161.102 187.799 161.329 188.521 161.782C189.242 162.235 189.81 162.879 190.224 163.714C190.638 164.549 190.845 165.539 190.845 166.686ZM189.571 166.686C189.571 165.744 189.414 164.95 189.099 164.303C188.788 163.655 188.365 163.165 187.831 162.833C187.3 162.5 186.706 162.334 186.047 162.334C185.389 162.334 184.793 162.5 184.259 162.833C183.728 163.165 183.305 163.655 182.991 164.303C182.679 164.95 182.524 165.744 182.524 166.686C182.524 167.627 182.679 168.421 182.991 169.068C183.305 169.716 183.728 170.206 184.259 170.539C184.793 170.871 185.389 171.037 186.047 171.037C186.706 171.037 187.3 170.871 187.831 170.539C188.365 170.206 188.788 169.716 189.099 169.068C189.414 168.421 189.571 167.627 189.571 166.686ZM194.141 161.251V172.12H192.888V161.251H194.141ZM196.435 172.12V163.968H197.687V172.12H196.435ZM197.072 162.61C196.828 162.61 196.617 162.527 196.44 162.36C196.267 162.194 196.18 161.994 196.18 161.761C196.18 161.527 196.267 161.327 196.44 161.161C196.617 160.995 196.828 160.911 197.072 160.911C197.316 160.911 197.525 160.995 197.698 161.161C197.875 161.327 197.963 161.527 197.963 161.761C197.963 161.994 197.875 162.194 197.698 162.36C197.525 162.527 197.316 162.61 197.072 162.61ZM206.647 163.968L203.633 172.12H202.359L199.345 163.968H200.703L202.953 170.464H203.038L205.289 163.968H206.647ZM208.3 172.12V163.968H209.553V172.12H208.3ZM208.937 162.61C208.693 162.61 208.483 162.527 208.306 162.36C208.132 162.194 208.046 161.994 208.046 161.761C208.046 161.527 208.132 161.327 208.306 161.161C208.483 160.995 208.693 160.911 208.937 160.911C209.181 160.911 209.39 160.995 209.564 161.161C209.74 161.327 209.829 161.527 209.829 161.761C209.829 161.994 209.74 162.194 209.564 162.36C209.39 162.527 209.181 162.61 208.937 162.61ZM214.246 172.311C213.729 172.311 213.26 172.214 212.839 172.019C212.418 171.821 212.084 171.536 211.836 171.165C211.589 170.79 211.465 170.337 211.465 169.806C211.465 169.339 211.557 168.961 211.741 168.67C211.925 168.377 212.171 168.147 212.479 167.981C212.786 167.814 213.126 167.69 213.498 167.609C213.873 167.524 214.249 167.457 214.628 167.407C215.123 167.344 215.525 167.296 215.833 167.264C216.144 167.229 216.37 167.17 216.512 167.089C216.657 167.008 216.73 166.866 216.73 166.664V166.622C216.73 166.098 216.586 165.691 216.3 165.401C216.017 165.111 215.587 164.966 215.01 164.966C214.412 164.966 213.943 165.097 213.604 165.359C213.264 165.621 213.025 165.9 212.887 166.197L211.698 165.773C211.911 165.277 212.194 164.892 212.548 164.616C212.905 164.336 213.294 164.142 213.715 164.032C214.14 163.919 214.557 163.862 214.968 163.862C215.229 163.862 215.53 163.894 215.87 163.958C216.213 164.018 216.544 164.143 216.862 164.334C217.184 164.526 217.451 164.814 217.664 165.2C217.876 165.585 217.982 166.102 217.982 166.749V172.12H216.73V171.016H216.666C216.581 171.193 216.439 171.382 216.241 171.584C216.043 171.786 215.78 171.957 215.451 172.099C215.122 172.24 214.72 172.311 214.246 172.311ZM214.437 171.186C214.932 171.186 215.35 171.089 215.689 170.894C216.033 170.7 216.291 170.448 216.464 170.141C216.641 169.833 216.73 169.509 216.73 169.169V168.023C216.677 168.087 216.56 168.145 216.379 168.198C216.202 168.248 215.997 168.292 215.764 168.331C215.534 168.366 215.309 168.398 215.09 168.426C214.874 168.451 214.699 168.472 214.564 168.49C214.239 168.532 213.934 168.601 213.651 168.697C213.372 168.789 213.145 168.929 212.972 169.116C212.802 169.3 212.717 169.551 212.717 169.87C212.717 170.305 212.878 170.634 213.2 170.857C213.526 171.076 213.938 171.186 214.437 171.186Z" fill="white" fill-opacity="0.88"/>
<rect x="110" y="131" width="149" height="72" rx="8" stroke="#E7883B" stroke-width="2" stroke-linecap="round" stroke-dasharray="6 6"/>
</g>
<defs>
<pattern id="pattern0_9781_45373" patternContentUnits="objectBoundingBox" width="0.0368421" height="0.0491228">
<use xlink:href="#image0_9781_45373" transform="scale(0.000657895 0.000877193)"/>
</pattern>
<clipPath id="clip0_9781_45373">
<rect width="400" height="300" fill="white"/>
</clipPath>
<clipPath id="clip1_9781_45373">
<rect x="297" y="-62" width="134" height="134" rx="67" fill="white"/>
</clipPath>
<image id="image0_9781_45373" width="56" height="56" preserveAspectRatio="none" xlink:href="data:image/png;base64,iVBORw0KGgoAAAANSUhEUgAAADgAAAA4CAYAAACohjseAAAACXBIWXMAACxLAAAsSwGlPZapAAAAAXNSR0IArs4c6QAAAARnQU1BAACxjwv8YQUAAADdSURBVHgB7dmxDoMgFIXhCzEmbsbF9388F8PGAKHt6dSksvXaHHK+EQbzB0Sj4fFiA4s2OAWyUyA7BbJTIDsFslMgOwWyUyA7BbJTIDsFspvsBrVWO8/TSinWWrNlWWxdV5sm/8sH7w+/iDuO4x32KcZo+767R7pv0ZTSVxxgDKvqzT0w59ydw5b15h4YQujOXa3sr7kHzvPcncNh4809cNu2y1XEGE5Sb+GO32c4SXHY4H5EGFYV4UM8Jv5Nr2rsFMhOgewUyE6B7BTIToHsFMhOgewUyE6B7IYPfALcB0NZ5j6jXgAAAABJRU5ErkJggg=="/>
</defs>
</svg>
